header/folder.svg

<svg width="25" height="22" viewBox="0 0 25 22" fill="none" xmlns="http://www.w3.org/2000/svg">
<path d="M22.538 22H2.33152C1.08804 22 0 20.9 0 19.6429V2.35714C0 1.1 1.08804 0 2.33152 0H8.54891C9.79239 0 10.8804 1.1 10.8804 2.35714V3.92857C10.8804 4.4 11.1913 4.71429 11.6576 4.71429H22.538C23.7815 4.71429 24.8696 5.81429 24.8696 7.07143V19.6429C24.8696 20.9 23.7815 22 22.538 22ZM2.33152 1.57143C1.86522 1.57143 1.55435 1.88571 1.55435 2.35714V19.6429C1.55435 20.1143 1.86522 20.4286 2.33152 20.4286H22.538C23.0043 20.4286 23.3152 20.1143 23.3152 19.6429V7.07143C23.3152 6.6 23.0043 6.28571 22.538 6.28571H11.6576C10.4141 6.28571 9.32609 5.18571 9.32609 3.92857V2.35714C9.32609 1.88571 9.01522 1.57143 8.54891 1.57143H2.33152Z" fill="#726F68"/>
<path d="M2.0898 5.56077L2.09782 5.56823L2.10661 5.57478C2.51957 5.88218 3.02922 6.12308 3.63195 6.12308C4.22386 6.12308 4.8209 5.88941 5.17411 5.56077L5.17413 5.56078L5.17634 5.55866L10.1741 0.763026C10.2891 0.655516 10.3538 0.513312 10.3538 0.363379C10.3538 0.212916 10.2886 0.0702374 10.1729 -0.0374056L10.0367 0.109014L10.1729 -0.0374061C9.93993 -0.254197 9.58669 -0.254197 9.3537 -0.0374061L9.35369 -0.0374233L9.35147 -0.0352958L4.36812 4.74647C4.14772 4.88072 3.88166 4.99632 3.63195 4.99632C3.34692 4.99632 3.09229 4.92972 2.90902 4.7592L0.800145 2.79695C0.567154 2.58016 0.213912 2.58016 -0.0190794 2.79695C-0.134766 2.90459 -0.2 3.04727 -0.2 3.19773C-0.2 3.3482 -0.134766 3.49088 -0.0190795 3.59852L2.0898 5.56077Z" transform="translate(7.61719 10.1543)" fill="#726F68" stroke="#726F68" stroke-width="0.4"/>
</svg>

<svg width="25" height="22" fill="none" xmlns="http://www.w3.org/2000/svg"><path d="M22.54 22H2.34A2.4 2.4 0 0 1 0 19.64V2.36A2.4 2.4 0 0 1 2.33 0h6.22a2.4 2.4 0 0 1 2.33 2.36v1.57c0 .47.31.78.78.78h10.88a2.4 2.4 0 0 1 2.33 2.36v12.57A2.4 2.4 0 0 1 22.54 22zM2.34 1.57c-.47 0-.79.32-.79.79v17.28c0 .47.32.79.78.79h20.2c.47 0 .79-.32.79-.79V7.07c0-.47-.32-.78-.78-.78H11.66a2.4 2.4 0 0 1-2.33-2.36V2.36c0-.47-.31-.79-.78-.79H2.33z" fill="#726F68"/><path d="M9.7 15.72h.02a2.37 2.37 0 0 0 3.07-.01l5-4.8c.12-.1.18-.24.18-.4 0-.14-.06-.29-.18-.4l-.14.15.14-.14a.6.6 0 0 0-.82 0l-4.98 4.78a1.5 1.5 0 0 1-.74.25c-.29 0-.54-.07-.72-.24l-2.11-1.96a.6.6 0 0 0-.82 0 .55.55 0 0 0-.18.4c0 .15.06.3.18.4l2.1 1.97z" fill="#726F68" stroke="#726F68" stroke-width=".4"/></svg>
